X:171
T: Es zogen drei Burschen wohl ber den Rhein (3-9), S. 25
N: K1146
O: Luxemburg
S: KINTZELE, Guillaume: An der Ucht, Bd. 3 Luxemburg 1928]
N: in der Quelle mit einer 2. Stimme versehen
R: ???]
M: 3/4
L: 1/8
K: C
C2 | C3EG2 | c3BA2 | A3GG2 | E4
G2 | G3FF2 | D3EF2 | A3GG2 | E3z
C2 | C3EG2 | e3dc2 | d3cB2 | c4

@@@ Tune index: 8225
